X: 1
T: The Wishing Well
T: 8x32S 2C
P: Major Thomas of Cairnleith
C: Lindsay Ross
C: from "Originally Ours"
R: Strathspey
K: Bb
M: 4/4
L: 1/8
F2|"Bb"d>cB>G F<DD>F|"Eb"G/F/G/A/ B>G "Bb"F>B,!beambr1!D<F|"Gm"d>cB>G "Dm"F<DD>F|"C7"G<cc>=B "F"c2 c>f|"Bb"d>cB>G F<DD>F|
"Eb"G/F/G/A/ B>G "Bb"F>B,!beambr1!D<F|"Eb"G>B!beambr1!e<g "Bb"F>B!beambr1!d<f|"F"F<dc>B "Bb"B2 "D7"B>A||"Gm"G>AB>c d>BG>d|"Cm"e>c!beambr1!A<e "Gm"d>B G2|
"D"^F>GA>F D<cB>A|"Gm"G>A"Eb"B>c "D"d2 d2|"Gm"G>AB>c d>BG>d|"Cm"e>e"F"f>e "Bb"d>cB>A|"Eb"G>B!beambr1!e<g "Bb"F>B!beambr1!d<f| "F"F<dc>B "Bb"B2 B |]